storage/app/icons/phosphoricons/thin/projector-screen-thin.svg

<svg xmlns="http://www.w3.org/2000/svg" fill="currentColor" viewBox="0 0 256 256"><path d="M216 76a12 12 0 0 0 12-12V48a12 12 0 0 0-12-12H40a12 12 0 0 0-12 12v16a12 12 0 0 0 12 12h4v104H32a4 4 0 0 0 0 8h92v24.4a20 20 0 1 0 8 0V188h92a4 4 0 0 0 0-8h-12V76Zm-76 156a12 12 0 1 1-12-12 12 12 0 0 1 12 12M36 64V48a4 4 0 0 1 4-4h176a4 4 0 0 1 4 4v16a4 4 0 0 1-4 4H40a4 4 0 0 1-4-4m168 116H52V76h152Z"/></svg>

<svg xmlns="http://www.w3.org/2000/svg" viewBox="0 0 256 256" fill="currentColor"><path d="M216,76a12,12,0,0,0,12-12V48a12,12,0,0,0-12-12H40A12,12,0,0,0,28,48V64A12,12,0,0,0,40,76h4V180H32a4,4,0,0,0,0,8h92v24.4a20,20,0,1,0,8,0V188h92a4,4,0,0,0,0-8H212V76ZM140,232a12,12,0,1,1-12-12A12,12,0,0,1,140,232ZM36,64V48a4,4,0,0,1,4-4H216a4,4,0,0,1,4,4V64a4,4,0,0,1-4,4H40A4,4,0,0,1,36,64ZM204,180H52V76H204Z"/></svg>
